X: 27447
T: Molly Bán
R: reel
M: 4/4
K: Gmixolydian
G2dG Acdc|AFcF dFcF|AGBd (3gbg dc|BdcA dAcA|
G2dG Acdc|AF~F2 dFcF|AGBd (3gbg dc|BdcA BGG2|
~g2dg ga{b}ag|fAde f3a|~g2dg g_bag|fdcA =BGBd|
~g2dg g_bag|fAde f3g|a_bag fa{b}ag|^fdcA dAcA|

